X: 1
T: Mazurka
O: A.18
R: shottish
Z: 2017 John Chambers <jc:trillian.mit.edu>
S: handwritten MS of unknown origin, labelled "A.18".
M: 3/4
L: 1/8
K: D
|:\
af df ed | cd ef g2 | ge ce Ac |\
[1,3 de fg a2 :|[2,4 d2 d4 :|
|:\
Ad d4 | dc c4 | GA B4 | BA A4 |\
FA d4 | cde3 f | ge ce Ac | d2 d4 :|
